public/images/modals/export/warning-dark.svg

<svg width="208" height="105" viewBox="0 0 208 105" fill="none" xmlns="http://www.w3.org/2000/svg">
<path d="M132.711 68.1864L144.298 56.6C146.66 54.2381 146.66 50.4087 144.298 48.0468L109.016 12.7649C106.654 10.403 102.825 10.403 100.463 12.7649L65.1807 48.0468C62.8188 50.4087 62.8188 54.2381 65.1807 56.6L100.463 91.8819C102.825 94.2438 106.654 94.2438 109.016 91.8819L121.371 79.5264M128.175 72.7224L125.492 75.4056" stroke="#FC9F0F" stroke-width="2" stroke-linecap="round" stroke-linejoin="round"/>
<path d="M90.7532 16.0603L98.3244 8.48911C101.867 4.94626 107.611 4.94626 111.154 8.48911L148.574 45.9093C152.117 49.4522 152.117 55.1963 148.574 58.7391L111.154 96.1593C107.611 99.7022 101.867 99.7022 98.3244 96.1593L60.9042 58.7391C57.3613 55.1963 57.3613 49.4522 60.9042 45.9093L74.4992 32.3143M87.7292 19.0843L77.9012 28.9123" stroke="#FC9F0F" stroke-width="2" stroke-linecap="round" stroke-linejoin="round"/>
<path d="M101.739 39.6927C101.739 37.6943 103.359 36.0742 105.358 36.0742C107.356 36.0742 108.976 37.6943 108.976 39.6927V53.5483C108.976 55.5467 107.356 57.1668 105.358 57.1668C103.359 57.1668 101.739 55.5468 101.739 53.5483V39.6927ZM101.739 65.0946C101.739 63.0961 103.359 61.4761 105.358 61.4761C107.356 61.4761 108.976 63.0961 108.976 65.0946C108.976 67.0931 107.356 68.7131 105.358 68.7131C103.359 68.7131 101.739 67.0931 101.739 65.0946Z" fill="#3D444D" stroke="#E3E8EA" stroke-width="2"/>
<path d="M30.5609 16.0048H32.5609V9.00478L39.5609 9.00478V7.00478L32.5609 7.00478V0.00478334L30.5609 0.00478317V7.00478L23.5609 7.00478V9.00478L30.5609 9.00478L30.5609 16.0048Z" fill="#3D444D"/>
<path d="M73.5609 104.005H75.5609V97.0048H82.5609L82.561 95.0048H75.5609V88.0048H73.5609V95.0048H66.5609V97.0048H73.5609V104.005Z" fill="#3D444D"/>
<path d="M7.55958 104.003H9.55958L9.55958 97.003H16.5596V95.003H9.55958L9.55958 88.003H7.55958L7.55958 95.003H0.559571L0.55957 97.003H7.55958L7.55958 104.003Z" fill="#3D444D"/>
<path d="M29.5596 104.003L31.5596 104.003L31.5596 97.003H38.5596V95.003H31.5596L31.5596 88.003L29.5596 88.003L29.5596 95.003H22.5596V97.003H29.5596L29.5596 104.003Z" fill="#3D444D"/>
<path d="M29.5596 82.0031L31.5596 82.0031L31.5596 75.0031H38.5596V73.0031H31.5596L31.5596 66.0031L29.5596 66.0031L29.5596 73.0031H22.5596V75.0031H29.5596L29.5596 82.0031Z" fill="#3D444D"/>
<path d="M52.0596 82.0031H54.0596V75.0031H61.0597V73.0031H54.0596V66.0031H52.0596V73.0031H45.0596V75.0031H52.0596V82.0031Z" fill="#3D444D"/>
<path d="M52.0593 16.0029H54.0593V9.00291H61.0593V7.00291L54.0593 7.00291V0.00291414L52.0593 0.00291397V7.00291L45.0593 7.00291V9.00291H52.0593V16.0029Z" fill="#3D444D"/>
<path d="M52.0595 38.0029H54.0595V31.0029L61.0595 31.0029V29.0029H54.0595V22.0029H52.0595V29.0029L45.0595 29.0029V31.0029L52.0595 31.0029V38.0029Z" fill="#3D444D"/>
<path d="M73.5595 16.0029H75.5595L75.5595 9.00294L82.5595 9.00294V7.00294L75.5595 7.00294V0.00294269L73.5595 0.00294234V7.00294L66.5595 7.00294V9.00294L73.5595 9.00294V16.0029Z" fill="#3D444D"/>
<path d="M177.442 16.0001H175.442V9.00013L168.442 9.00013V7.00013L175.442 7.00013V0.00013123L177.442 0.000131405V7.00013L184.442 7.00013V9.00013L177.442 9.00013V16.0001Z" fill="#3D444D"/>
<path d="M134.441 104H132.441V97.0001H125.441V95.0001H132.441V88.0001H134.441V95.0001H141.441V97.0001H134.441V104Z" fill="#3D444D"/>
<path d="M200.44 104H198.44V97.0001H191.44V95.0001H198.44V88.0001H200.44V95.0001H207.44V97.0001H200.44V104Z" fill="#3D444D"/>
<path d="M178.44 104H176.44V97.0001H169.44V95.0001H176.44V88.0001H178.44V95.0001H185.44V97.0001H178.44V104Z" fill="#3D444D"/>
<path d="M178.44 82.0002H176.44V75.0002H169.44V73.0002H176.44V66.0002H178.44V73.0002H185.44V75.0002H178.44V82.0002Z" fill="#3D444D"/>
<path d="M155.94 82.0002H153.94V75.0002H146.94V73.0002H153.94V66.0002H155.94V73.0002H162.94V75.0002H155.94V82.0002Z" fill="#3D444D"/>
<path d="M155.94 16H153.94V9L146.94 9V7L153.94 7V0L155.94 1.78814e-07V7L162.94 7V9L155.94 9V16Z" fill="#3D444D"/>
<path d="M155.94 38H153.94V31H146.94V29L153.94 29V22H155.94V29H162.94V31H155.94V38Z" fill="#3D444D"/>
<path d="M134.44 16H132.44V9.00002L125.44 9.00002V7.00002L132.44 7.00002V2.47955e-05H134.44V7.00002H141.44V9.00002H134.44V16Z" fill="#3D444D"/>
</svg>

<svg width="208" height="105" fill="none" xmlns="http://www.w3.org/2000/svg"><path d="M132.711 68.186 144.298 56.6a6.048 6.048 0 0 0 0-8.553l-35.282-35.282a6.048 6.048 0 0 0-8.553 0L65.181 48.047a6.048 6.048 0 0 0 0 8.553l35.282 35.282a6.048 6.048 0 0 0 8.553 0l12.355-12.356m6.804-6.804-2.683 2.684" stroke="#FC9F0F" stroke-width="2" stroke-linecap="round" stroke-linejoin="round"/><path d="m90.753 16.06 7.571-7.57a9.072 9.072 0 0 1 12.83 0l37.42 37.42a9.072 9.072 0 0 1 0 12.83l-37.42 37.42a9.072 9.072 0 0 1-12.83 0l-37.42-37.42a9.072 9.072 0 0 1 0-12.83L74.5 32.313m13.23-13.23-9.828 9.828" stroke="#FC9F0F" stroke-width="2" stroke-linecap="round" stroke-linejoin="round"/><path d="M101.739 39.693a3.619 3.619 0 0 1 7.237 0v13.855a3.618 3.618 0 1 1-7.237 0V39.693Zm0 25.402a3.619 3.619 0 1 1 7.237 0 3.619 3.619 0 0 1-7.237 0Z" fill="#3D444D" stroke="#E3E8EA" stroke-width="2"/><path d="M30.56 16.005h2v-7h7v-2h-7v-7h-2v7h-7v2h7v7ZM73.56 104.005h2v-7h7l.001-2h-7v-7h-2v7h-7v2h7v7ZM7.56 104.003h2v-7h7v-2h-7v-7h-2v7h-7v2h7v7ZM29.56 104.003h2v-7h7v-2h-7v-7h-2v7h-7v2h7v7ZM29.56 82.003h2v-7h7v-2h-7v-7h-2v7h-7v2h7v7ZM52.06 82.003h2v-7h7v-2h-7v-7h-2v7h-7v2h7v7ZM52.06 16.003h2v-7h7v-2h-7v-7h-2v7h-7v2h7v7ZM52.06 38.003h2v-7h7v-2h-7v-7h-2v7h-7v2h7v7ZM73.56 16.003h2v-7h7v-2h-7v-7h-2v7h-7v2h7v7ZM177.442 16h-2V9h-7V7h7V0h2v7h7v2h-7v7ZM134.441 104h-2v-7h-7v-2h7v-7h2v7h7v2h-7v7ZM200.44 104h-2v-7h-7v-2h7v-7h2v7h7v2h-7v7ZM178.44 104h-2v-7h-7v-2h7v-7h2v7h7v2h-7v7ZM178.44 82h-2v-7h-7v-2h7v-7h2v7h7v2h-7v7ZM155.94 82h-2v-7h-7v-2h7v-7h2v7h7v2h-7v7ZM155.94 16h-2V9h-7V7h7V0h2v7h7v2h-7v7ZM155.94 38h-2v-7h-7v-2h7v-7h2v7h7v2h-7v7ZM134.44 16h-2V9h-7V7h7V0h2v7h7v2h-7v7Z" fill="#3D444D"/></svg>
